!!!!SEGMENT: pl-cz--i-69_kraus-jozef--credidi.krn
!!!cenid: 17xx:935
!!!COM: Kraus, Józef
!!!COM-rismID: pe30099477
!!!CDT: <1736->1736
!!!CNT:
!!!OTL: Credidi
!!!PDT: 1747
!!!AGN:
!!!SMS-siglum: PL-CZ
!!!SMS-shelfmark: I-69
!!!SMS-shelfwork: W
!!!SMS-variant:
!!!SMS-altvar:
!!!NIFC-rismSourceID: 300000640
!!!NIFC-rismChildID: 300000640
!!!NIFC-islandoraID: pl-cz:31794
!!!URL-pdf-islandora: https://repozytorium.nifc.pl/islandora/object/pl-cz%3A31794/datastream/PDF/view
!!!URL-scan: https://polish.musicsources.pl/pl/lokalizacje/galeria/rekopisy/6741/1 @EN{Scan on Polish Music Sources Website} @PL{Skany w portalu Dziedzictwo Muzyki Polskiej w otwartym dostępie}
!!!ONB-nifc:
!!!AIN: 1 alto 1 bass 1 tenor 2 violn
!!!key: g
**kern	**dynam	**kern	**dynam	**kern	**text	**kern	**text	**kern	**text
*group2	*	*group2	*	*group1	*	*group1	*	*group1	*
*part5	*part5	*part4	*part4	*part3	*part3	*part2	*part2	*part1	*part1
*staff5	*	*staff4	*	*staff3	*staff3	*staff2	*staff2	*staff1	*staff1
*I"Violino 2do:	*	*I"Violino Primo.	*	*I"Baſso.	*	*I"Tenore.	*	*I"Alto.	*
*I'[Vl 2]	*	*I'[Vl 1]	*	*I'[B]	*	*I'[T]	*	*I'[A]	*
*Ivioln	*	*Ivioln	*	*Ibass	*	*Itenor	*	*Ialto	*
*ICstr	*	*ICstr	*	*ICvox	*	*ICvox	*	*ICvox	*
*IGacmp	*	*IGacmp	*	*IGcoro	*	*IGcoro	*	*IGcoro	*
*clefG2	*	*clefG2	*	*clefF4	*	*clefC4	*	*clefC3	*
*k[b-e-]	*	*k[b-e-]	*	*k[b-e-]	*	*k[b-e-]	*	*k[b-e-]	*
*g:	*	*g:	*	*g:	*	*g:	*	*g:	*
*M4/4	*	*M4/4	*	*M4/4	*	*M4/4	*	*M4/4	*
*met(c)	*	*met(c)	*	*met(c)	*	*met(c)	*	*met(c)	*
=1	=1	=1	=1	=1	=1	=1	=1	=1	=1
!	!	!	!	!LO:TX:t=P:problem=bemol BB- połączony z kluczem	!	!	!	!	!
!LO:TX:a:B:t=Allgro&colon;	!LO:DY:a:t=piano	!LO:TX:a:B:t=Allgro&colon;	!	!LO:TX:t=P:problem=brak oznaczenia tempa	!	!LO:TX:a:B:t=Allegro&colon;	!	!LO:TX:a:B:t=Allegro&colon;	!
8b-/L	p	8dd\L	.	00r	.	00r	.	00r	.
16a/L	.	16cc\L	.	.	.	.	.	.	.
16g/JJ	.	16b-\JJ	.	.	.	.	.	.	.
!	!	!	!LO:DY:a:t=piano	!	!	!	!	!	!
8c/L	.	8a/L	p	.	.	.	.	.	.
8B-/J	.	8g/J	.	.	.	.	.	.	.
.	.	8qqg/	.	.	.	.	.	.	.
4A/	.	4f#X/	.	.	.	.	.	.	.
16g\LL	.	16dd\LL	.	.	.	.	.	.	.
16b-\	.	16gg\	.	.	.	.	.	.	.
16cc\	.	16aa\	.	.	.	.	.	.	.
16dd\JJ	.	16bb-\JJ	.	.	.	.	.	.	.
=2	=2	=2	=2	=2-	=2	=2-	=2	=2-	=2
!!mixed beam:problem
!LO:TX:t=P:problem=mixed beam	!LO:DY:b:t=for&colon;	!	!	!	!	!	!	!	!
8cc\L	f	16aa\LL	.	.	.	.	.	.	.
.	.	16ee-\	.	.	.	.	.	.	.
8g/	.	16gg\	.	.	.	.	.	.	.
.	.	16dd\JJ	.	.	.	.	.	.	.
8g/	.	4ccT>\	.	.	.	.	.	.	.
8f#X/J	.	.	.	.	.	.	.	.	.
!!mixed beam:problem
!	!	!LO:TX:t=P:problem=mixed beam	!	!	!	!	!	!	!
.	.	8qqcc/	.	.	.	.	.	.	.
8g/L	.	8b-/L	.	.	.	.	.	.	.
[>8gg\J	.	16ddd\L	.	.	.	.	.	.	.
.	.	16ccc\JJ	.	.	.	.	.	.	.
16gg\LL]	.	16bb-\LL	.	.	.	.	.	.	.
16dd\	.	16gg\	.	.	.	.	.	.	.
16b-\	.	16dd\	.	.	.	.	.	.	.
16g\JJ	.	16b-\JJ	.	.	.	.	.	.	.
=3	=3	=3	=3	=3-	=3	=3-	=3	=3-	=3
!!mixed beam:problem
!	!	!LO:TX:t=P:problem=mixed beam	!	!	!	!	!	!	!
8d/L	.	8a/L	.	.	.	.	.	.	.
8a/	.	8dd\J	.	.	.	.	.	.	.
8a/	.	8r	.	.	.	.	.	.	.
8a/J	.	8dd\	.	.	.	.	.	.	.
!LO:TUP:b:problem=klamra łukowa	!	!LO:TUP:a:problem=klamra łukowa	!	!	!	!	!	!	!
12bn/L	.	12dd\L	.	.	.	.	.	.	.
12a/	.	12cc\	.	.	.	.	.	.	.
12g/J	.	12bn\J	.	.	.	.	.	.	.
!LO:TUP:a:problem=klamra łukowa	!	!LO:TUP:b:problem=klamra łukowa	!	!	!	!	!	!	!
12d/L	.	12b/L	.	.	.	.	.	.	.
12c/	.	12a/	.	.	.	.	.	.	.
12Bn/J	.	12g/J	.	.	.	.	.	.	.
!	!	!LO:LB:g=original	!	!	!	!	!	!	!
=4	=4	=4	=4	=4-	=4	=4-	=4	=4-	=4
!	!	!LO:TX:t=P:problem=mixed beam	!	!	!	!	!	!	!
8c/L	.	8g/L	.	.	.	.	.	.	.
8g/	.	8cc\J	.	.	.	.	.	.	.
8g/	.	8r	.	.	.	.	.	.	.
8g/J	.	8cc\	.	.	.	.	.	.	.
!LO:LB:g=original	!	!	!	!	!	!	!	!	!
!LO:TUP:b:problem=klamra łukowa	!	!LO:TUP:b:problem=klamra łukowa	!	!	!	!	!	!	!
12a/L	.	12cc/L	.	.	.	.	.	.	.
12g/	.	12b-/	.	.	.	.	.	.	.
12f/J	.	12a/J	.	.	.	.	.	.	.
!LO:TUP:a:problem=klamra łukowa	!	!LO:TUP:b:problem=klamra łukowa	!	!	!	!	!	!	!
12c/L	.	12a/L	.	.	.	.	.	.	.
12B-/	.	12g/	.	.	.	.	.	.	.
12A/J	.	12f/J	.	.	.	.	.	.	.
=5	=5	=5	=5	=5-	=5	=5-	=5	=5-	=5
8B-/L	.	8f/L	.	1r	.	1r	.	1r	.
8f/	.	8b-/J	.	.	.	.	.	.	.
8f/	.	8r	.	.	.	.	.	.	.
8b-/J	.	8dd\	.	.	.	.	.	.	.
!	!	!LO:TUP:a:problem=klamra łukowa	!	!	!	!	!	!	!
8b-\L	.	12gg\L	.	.	.	.	.	.	.
.	.	12ff\	.	.	.	.	.	.	.
8b-\	.	.	.	.	.	.	.	.	.
.	.	12ee-\J	.	.	.	.	.	.	.
!	!	!LO:TUP:a:problem=klamra łukowa	!	!	!	!	!	!	!
8b-\	.	12ee-\L	.	.	.	.	.	.	.
.	.	12dd\	.	.	.	.	.	.	.
8ee-\J	.	.	.	.	.	.	.	.	.
.	.	12cc\J	.	.	.	.	.	.	.
=6	=6	=6	=6	=6	=6	=6	=6	=6	=6
4dd\	.	4b-\	.	2rBB	.	2r	.	2r	.
4a/	.	4ccT>\	.	.	.	.	.	.	.
!	!LO:DY:a:t=for&colon;	!	!LO:DY:a:t=for&colon;	!	!	!	!	!	!
16dd\LL	f	16dd\LL	f	8BB-/	E-	8f\	E-	8.b-\	E-
16b-\	.	16b-\	.	.	.	.	.	.	.
16ee-\	.	16ee-\	.	8C/	-go	8e-\	-go	.	.
16b-\JJ	.	16b-\JJ	.	.	.	.	.	16b-\	-go
16ff\LL	.	16ff\LL	.	8D/	di-	8d\	di-	8b-\	di-
16b-\	.	16b-\	.	.	.	.	.	.	.
16gg\	.	16gg\	.	8E-\	-xi	8B-\	-xi	8b-\	-xi
16b-\JJ	.	16b-\JJ	.	.	.	.	.	.	.
=7	=7	=7	=7	=7	=7	=7	=7	=7	=7
16f/LL	.	16aa\LL	.	8F\	in	8A\	in	8f\	in
16a/	.	16ff\	.	.	.	.	.	.	.
16g/	.	16bb-\	.	8F\	ex-	8B-\	ex-	8g\	ex-
16b-/JJ	.	16gg\JJ	.	.	.	.	.	.	.
16a/LL	.	16ccc\LL	.	8F\	-ceſ-	8c\	-ceſ-	8a\	-ceſ-
16cc/	.	16aa\	.	.	.	.	.	.	.
16b-/	.	16ddd\	.	8F\	-su	8d\	-su	8b-\	-su
16dd/JJ	.	16bb-\JJ	.	.	.	.	.	.	.
!!mixed beam:problem
!LO:TX:t=P:problem=mixed beam	!	!LO:TX:t=P:problem=mixed beam	!	!	!	!	!	!	!
16ee-\LL	.	16g/LL	.	8C/	me-	8e-\	me-	8g\	me-
16g/	.	16ee-\	.	.	.	.	.	.	.
16g/	.	16ee-\	.	8D/	-o	8e-\	-o	8g\	-o
16ee-\JJ	.	16g/JJ	.	.	.	.	.	.	.
!!mixed beam:problem
!LO:TX:t=P:problem=mixed beam	!	!LO:TX:t=P:problem=mixed beam	!	!	!	!	!	!	!
16gg\LL	.	16g/LL	.	8E-\	om-	8e-\	om-	8g\	om-
16g/	.	16gg\	.	.	.	.	.	.	.
16g/	.	16gg\	.	8E-\	-nis	8e-\	-nis	8g\	-nis
16gg\JJ	.	16g/JJ	.	.	.	.	.	.	.
=8	=8	=8	=8	=8	=8	=8	=8	=8	=8
!!mixed beam:problem
!LO:TX:t=P:problem=mixed beam	!	!LO:TX:t=P:problem=mixed beam	!	!	!	!	!	!	!
16ff#X\LL	.	16a/LL	.	8E-\	ho-	8c\	ho-	8a\	ho-
16a/	.	16ff#X\	.	.	.	.	.	.	.
16a/	.	16ff#\	.	8E-\	-mo	8c\	-mo	8a\	-mo
16ff#\JJ	.	16a/JJ	.	.	.	.	.	.	.
!LO:LB:g=original	!	!LO:LB:g=original	!	!	!	!	!	!	!
16gg\LL	.	16b-\LL	.	8D/	men-	8d\	men-	8b-\	men-
16b-\	.	16gg\	.	.	.	.	.	.	.
16b-\	.	16gg\	.	8D/	-dax	8d\	-dax	8b-\	-dax
16gg\JJ	.	16b-\JJ	.	.	.	.	.	.	.
*	*	*	*	*	*	*custos:e	*	*custos:b-	*
!	!	!	!	!	!	!LO:LB:g=original	!	!LO:LB:g=original	!
16gg\LL	.	16b-\LL	.	8C#X/	quid	8en\	quid	8b-\	quid
16b-\	.	16gg\	.	.	.	.	.	.	.
16b-\	.	16gg\	.	8C#/	re-	8e\	re-	8b-\	re-
16gg\JJ	.	16b-\JJ	.	.	.	.	.	.	.
*	*	*	*	*custos:C	*	*	*	*	*
!	!	!	!	!LO:LB:g=original	!	!	!	!	!
16gg\LL	.	16b-\LL	.	8C#X/	-tri-	8e\	-tri-	8b-\	-tri-
16b-\	.	16gg\	.	.	.	.	.	.	.
16b-\	.	16gg\	.	16C#/	-bu-	16e\	-bu-	16b-\	-bu-
16gg\JJ	.	16b-\JJ	.	16C#/	-am	16e\	-am	16b-\	-am
=9	=9	=9	=9	=9	=9	=9	=9	=9	=9
!!mixed beam:problem
!LO:TX:t=P:problem=mixed beam	!	!LO:TX:t=P:problem=mixed beam	!	!	!	!	!	!	!
16ff#X\LL	.	16a/LL	.	8.Cn/	Do-	8.e-X\	Do-	8.a\	Do-
16a/	.	16ff#X\	.	.	.	.	.	.	.
16a/	.	16ff#\	.	.	.	.	.	.	.
16ff#\JJ	.	16a/JJ	.	16C/	-mi-	16e-\	-mi-	16a\	-mi-
!!mixed beam:problem
!LO:TX:t=P:problem=mixed beam	!	!LO:TX:t=P:problem=mixed beam	!	!	!	!	!	!	!
16ff#\LL	.	16a/LL	.	8C/	-no	8e-\	-no	8a\	-no
16a/	.	16ff#\	.	.	.	.	.	.	.
16a/	.	16ff#\	.	8C/	pro	8e-\	pro	8a\	pro
16ff#\JJ	.	16a/JJ	.	.	.	.	.	.	.
!!mixed beam:problem
!LO:TX:t=P:problem=mixed beam	!	!LO:TX:t=P:problem=mixed beam	!	!	!	!	!	!	!
16gg\LL	.	16g/LL	.	8BB-/	om-	8d\	om-	8g\	om-
16g/	.	16gg\	.	.	.	.	.	.	.
16g/	.	16gg\	.	16BB-/	-ni-	16d\	-ni-	16g\	-ni-
16gg\JJ	.	16g/JJ	.	16BB-/	-b(us)	16d\	-bus	16g\	-bus
!!mixed beam:problem
!LO:TX:t=P:problem=mixed beam	!	!LO:TX:t=P:problem=mixed beam	!	!	!	!	!	!	!
16gg\LL	.	16a/LL	.	8C/	quae	8e-\	quae	8a\	quae
16a/	.	16gg\	.	.	.	.	.	.	.
16a/	.	16gg\	.	8C/	re-	8e-\	re-	8a\	re-
16gg\JJ	.	16a/JJ	.	.	.	.	.	.	.
=10	=10	=10	=10	=10	=10	=10	=10	=10	=10
!!mixed beam:problem
!LO:TX:t=P:problem=mixed beam	!	!LO:TX:t=P:problem=mixed beam	!	!	!	!	!	!	!
16gg\LL	.	16a/LL	.	8D/	-tri-	8d\	-tri-	8a\	-tri-
16a/	.	16gg\	.	.	.	.	.	.	.
16a/	.	16gg\	.	16D/	-bu-	16d\	-bu-	16a\	-bu-
16gg\JJ	.	16a/JJ	.	16D/	-it	16d\	-it	16a\	-it
!!mixed beam:problem
!LO:TX:t=P:problem=mixed beam	!	!LO:TX:t=P:problem=mixed beam	!	!	!	!	!	!	!
16ff#X\LL	.	16a/LL	.	4D/	mi-	4d\	mi-	4a\	mi-
16a/	.	16ff#X\	.	.	.	.	.	.	.
16a/	.	16ff#\	.	.	.	.	.	.	.
16ff#\JJ	.	16a/JJ	.	.	.	.	.	.	.
16gg\LL	.	16g\LL	.	4GG/	-hi,	4d\	-hi,	4g\	-hi,
16b-\	.	16gg\	.	.	.	.	.	.	.
16gg\	.	16cc\	.	.	.	.	.	.	.
16cc\JJ	.	16gg\JJ	.	.	.	.	.	.	.
16gg\LL	.	16dd\LL	.	4r	.	4r	.	4r	.
16dd\	.	16gg\	.	.	.	.	.	.	.
16gg\	.	16ee-\	.	.	.	.	.	.	.
16ee-\JJ	.	16gg\JJ	.	.	.	.	.	.	.
=11	=11	=11	=11	=11	=11	=11	=11	=11	=11
!	!	!	!	!	!	!	!	!LO:TX:a:t=Solo.	!
!!mixed beam:problem
!LO:TX:t=P:problem=mixed beam	!	!LO:TX:t=P:problem=mixed beam	!	!	!	!	!	!LO:N:vis=2	!
16gg\LL	.	16a/LL	.	00r	.	00r	.	4.r	.
16a/	.	16gg\	.	.	.	.	.	.	.
16a/	.	16gg\	.	.	.	.	.	.	.
16gg\JJ	.	16a/JJ	.	.	.	.	.	.	.
!!mixed beam:problem
!LO:TX:t=P:problem=mixed beam	!	!LO:TX:t=P:problem=mixed beam	!	!	!	!	!	!	!
16ff#X\LL	.	16a/LL	.	.	.	.	.	.	.
16a/	.	16ff#X\	.	.	.	.	.	.	.
16a/	.	16ff#\	.	.	.	.	.	8g\	Ca-
16ff#\JJ	.	16a/JJ	.	.	.	.	.	.	.
!LO:LB:g=original	!	!	!	!	!	!	!	!	!
!!mixed beam:problem
!LO:TX:t=P:problem=mixed beam	!	!LO:TX:t=P:p = p:o:global:problem	!	!	!	!	!	!	!
!	!LO:DY:b:t=p&colon;o	!LO:LB:g=original	!LO:DY:b:rj:t=p&colon;	!	!	!	!	!	!
16gg\LL	p	8b-\L	p	.	.	.	.	8.a\L	-li-
16g/	.	.	.	.	.	.	.	.	.
16.a/	.	16.ccT>\L	.	.	.	.	.	.	.
.	.	.	.	.	.	.	.	32g\LL	.
!LO:N:vis=32	!	!LO:N:vis=32	!	!	!	!	!	!	!
64g/LL	.	64b-\LL	.	.	.	.	.	32a\JJJ	.
!LO:N:vis=32	!	!LO:N:vis=32	!	!	!	!	!	!	!
64a/JJJJ	.	64cc\JJJJ	.	.	.	.	.	.	.
8b-/L	.	4dd\	.	.	.	.	.	4b-\	-cem
8b-/J	.	.	.	.	.	.	.	.	.
*	*	*	*	*	*	*	*	*custos:cc	*
!	!	!	!	!	!	!	!	!LO:LB:g=original	!
=12	=12	=12	=12	=12-	=12	=12-	=12	=12	=12
8b-/L	.	16ee-\LL	.	.	.	.	.	(>16cc\LL	ſa-
.	.	16dd\	.	.	.	.	.	16b-\JJ)	.
8b-/	.	16ee-\	.	.	.	.	.	(>16cc\LL	-lu-
.	.	16ff\JJ	.	.	.	.	.	16dd\JJ)	.
8a/	.	8ee-\L	.	.	.	.	.	8cc\	-ta-
8a/J	.	16dd\L	.	.	.	.	.	16b-\	-ris
.	.	16cc\JJ	.	.	.	.	.	16a\	ac-
!!mixed beam:problem
!LO:TX:t=P:problem=mixed beam	!	!LO:TX:t=P:problem=mixed beam	!	!	!	!	!	!	!
8b-/L	.	8dd\L	.	.	.	.	.	8b-\	-ci-
8f/	.	8d/J	.	.	.	.	.	16f\	-pi-
.	.	.	.	.	.	.	.	16f\	-am
8d/	.	16b-\LL	.	.	.	.	.	8r	.
.	.	16dd\	.	.	.	.	.	.	.
8dd\J	.	16ff\	.	.	.	.	.	8f\	et
.	.	[>16bb-\JJ	.	.	.	.	.	.	.
=13	=13	=13	=13	=13-	=13	=13-	=13	=13	=13
8gg\	.	16bb-\LL]	.	.	.	.	.	8en\	no-
.	.	16gg\	.	.	.	.	.	.	.
4ff\	.	16aa\	.	.	.	.	.	4f\	.
.	.	16ff\JJ	.	.	.	.	.	.	.
.	.	8.gg\T>L	.	.	.	.	.	.	.
8een\	.	.	.	.	.	.	.	8e\	-men
.	.	16gg\Jk	.	.	.	.	.	.	.
8ff\	.	16ff\LL	.	.	.	.	.	8f\	do-
.	.	16cc\	.	.	.	.	.	.	.
4ff\	.	16ccc\	.	.	.	.	.	8cc\	-mi-
.	.	16cc\JJ	.	.	.	.	.	.	.
.	.	16aa\LL	.	.	.	.	.	8a\L	-ni
.	.	16cc\	.	.	.	.	.	.	.
8ff\	.	16ff\	.	.	.	.	.	8f\J	.
.	.	16cc\JJ	.	.	.	.	.	.	.
=14	=14	=14	=14	=14-	=14	=14-	=14	=14	=14
!LO:TUP:a:problem=klamra łukowa	!	!	!	!	!	!	!	!	!
12ff\L	.	8bb-\	.	.	.	.	.	8b-\	et
12een\	.	.	.	.	.	.	.	.	.
.	.	4bb-\	.	.	.	.	.	4b-\	no-
12dd\J	.	.	.	.	.	.	.	.	.
!LO:TUP:a:problem=klamra łukowa	!	!	!	!	!	!	!	!	!
12dd\L	.	.	.	.	.	.	.	.	.
12cc\	.	.	.	.	.	.	.	.	.
.	.	8bb-\	.	.	.	.	.	8b-\	-men
12b-\J	.	.	.	.	.	.	.	.	.
!	!	!LO:TUP:a:problem=klamra łukowa	!	!	!	!	!	!LO:TUP:a:problem=klamra łukowa	!
8een\	.	12bb-\L	.	.	.	.	.	12b-\L	Do-
.	.	12aa\	.	.	.	.	.	12a\	.
4ee\	.	.	.	.	.	.	.	.	.
.	.	12gg\J	.	.	.	.	.	12g\J	.
!	!	!LO:TUP:a:problem=klamra łukowa	!	!	!	!	!	!LO:TUP:a:problem=klamra łukowa	!
.	.	12gg\L	.	.	.	.	.	12g\L	.
.	.	12ff\	.	.	.	.	.	12f\	.
8ee\	.	.	.	.	.	.	.	.	.
.	.	12een\J	.	.	.	.	.	12en\J	-mi-
*	*	*	*	*	*	*	*	*custos:a	*
!	!	!LO:LB:g=original	!	!	!	!	!	!LO:LB:g=original	!
=15	=15	=15	=15	=15-	=15	=15-	=15	=15	=15
!LO:TUP:a:problem=klamra łukowa	!	!	!	!	!	!	!	!	!
!LO:SIC:v:s:t=8een	!	!	!	!	!	!	!	!	!
12ee-\L	.	8aa\	.	0r	.	0r	.	8a\	-ni
12dd\	.	.	.	.	.	.	.	.	.
.	.	4aa\	.	.	.	.	.	4a\	et
12cc\J	.	.	.	.	.	.	.	.	.
!LO:TUP:a:problem=klamra łukowa	!	!	!	!	!	!	!	!	!
12cc\L	.	.	.	.	.	.	.	.	.
12b-\	.	.	.	.	.	.	.	.	.
.	.	8aa\	.	.	.	.	.	8a\	no-
12a\J	.	.	.	.	.	.	.	.	.
!	!	!LO:TUP:a:problem=klamra łukowa	!	!	!	!	!	!LO:TUP:a:problem=klamra łukowa	!
8dd\	.	12aa\L	.	.	.	.	.	12a\L	.
.	.	12gg\	.	.	.	.	.	12g\	.
4dd\	.	.	.	.	.	.	.	.	.
.	.	12ff\J	.	.	.	.	.	12f\J	.
!	!	!LO:TUP:a:problem=klamra łukowa	!	!	!	!	!	!LO:TUP:a:problem=klamra łukowa	!
.	.	12ff\L	.	.	.	.	.	12f\L	.
.	.	12een\	.	.	.	.	.	12en\	.
8dd\	.	.	.	.	.	.	.	.	.
.	.	12dd\J	.	.	.	.	.	12d\J	.
!LO:LB:g=original	!	!	!	!	!	!	!	!	!
=16	=16	=16	=16	=16-	=16	=16-	=16	=16	=16
!LO:TUP:a:problem=klamra łukowa	!	!	!	!	!	!	!	!	!
12dd\L	.	8gg\	.	.	.	.	.	8g\	-men
12cc#X\	.	.	.	.	.	.	.	.	.
.	.	4gg\	.	.	.	.	.	4g\	et
12bn\J	.	.	.	.	.	.	.	.	.
!LO:TUP:b:problem=klamra łukowa	!	!	!	!	!	!	!	!	!
12b/L	.	.	.	.	.	.	.	.	.
12a/	.	.	.	.	.	.	.	.	.
.	.	8gg\	.	.	.	.	.	8g\	no-
12g/J	.	.	.	.	.	.	.	.	.
!	!	!LO:TUP:a:problem=klamra łukowa	!	!	!	!	!	!LO:TUP:a:problem=klamra łukowa	!
8cc#X\	.	12gg\L	.	.	.	.	.	12g\L	.
.	.	12ff\	.	.	.	.	.	12f\	.
4cc#\	.	.	.	.	.	.	.	.	.
!	!	!	!	!	!	!	!	!LO:N:acc=#	!
.	.	12een\J	.	.	.	.	.	12en\J	.
!	!	!LO:TUP:a:problem=klamra łukowa	!	!	!	!	!	!LO:TUP:a:problem=klamra łukowa	!
.	.	12ee\L	.	.	.	.	.	12e\L	.
.	.	12dd\	.	.	.	.	.	12d\	-men
8een\	.	.	.	.	.	.	.	.	.
.	.	12cc#X\J	.	.	.	.	.	12c#X\J	.
=17	=17	=17	=17	=17-	=17	=17-	=17	=17	=17
!!mixed beam:problem
!	!	!LO:TX:t=P:problem=mixed beam	!	!	!	!	!	!	!
16dd\LL	.	16ff\LL	.	1r	.	1r	.	8f\	Do-
16a\	.	16a/	.	.	.	.	.	.	.
16ff\	.	16aa\	.	.	.	.	.	16a\	-mi-
16a\JJ	.	16a/JJ	.	.	.	.	.	16a\	-ni
!!mixed beam:problem
!	!	!LO:TX:t=P:problem=mixed beam	!	!	!	!	!	!	!
16een\LL	.	16gg\LL	.	.	.	.	.	8g\	in
16a\	.	16a/	.	.	.	.	.	.	.
16dd\	.	16ff\	.	.	.	.	.	8f\	Vo-
16a\JJ	.	16a/JJ	.	.	.	.	.	.	.
4en/	.	4dd\	.	.	.	.	.	(>4en\	-ca-
4cc#X\	.	4eent>\	.	.	.	.	.	4c#X/)	.
*	*	*	*	*	*	*custos:f	*	*	*
!	!	!	!	!	!	!LO:LB:g=original	!	!	!
=18	=18	=18	=18	=18	=18	=18	=18	=18	=18
!	!LO:DY:b:t=for&colon;	!	!LO:DY:b:t=for&colon;	!	!	!	!	!	!
4dd\	f	4dd\	f	4r	.	4r	.	4d\	-bo,
16aa\LL	.	16dd\LL	.	8D/	Vo-	8f\	Vo-	8a\	Vo-
16dd\	.	16aa\	.	.	.	.	.	.	.
16dd\	.	16aa\	.	8D/	-ta	8f\	-ta	8a\	-ta
16aa\JJ	.	16dd\JJ	.	.	.	.	.	.	.
*	*	*custos:cc	*	*	*	*	*	*	*
!	!	!LO:LB:g=original	!	!	!	!	!	!	!
16bb-\LL	.	16cc#X\LL	.	8D/	me-	8g\	me-	8b-\	me-
16cc#X\	.	16bb-\	.	.	.	.	.	.	.
16cc#\	.	16bb-\	.	8D/	-a	8g\	-a	8b-\	-a
16bb-\JJ	.	16cc#\JJ	.	.	.	.	.	.	.
*	*	*	*	*	*	*	*	*custos:g	*
!	!	!	!	!LO:LB:g=original	!	!	!	!LO:LB:g=original	!
16gg\LL	.	16cc#\LL	.	8B-\	Do-	8en\	Do-	8g\	Do-
16cc#X\	.	16gg\	.	.	.	.	.	.	.
16cc#\	.	16gg\	.	16B-\	-mi-	16e\	-mi-	16g\	-mi-
16gg\JJ	.	16cc#\JJ	.	16B-\	-no	16e\	-no	16g\	-no
=19	=19	=19	=19	=19	=19	=19	=19	=19	=19
16aa\LL	.	16dd\LL	.	8A\	red-	8f\	red-	8a\	red-
16dd\	.	16aa\	.	.	.	.	.	.	.
16dd\	.	16aa\	.	8A\	-dam	8f\	-dam	8a\	-dam
16aa\JJ	.	16dd\JJ	.	.	.	.	.	.	.
16bbn\LL	.	16dd\LL	.	8G#X\	co-	8f\	co-	8bn\	co-
16dd\	.	16bbn\	.	.	.	.	.	.	.
16dd\	.	16bb\	.	8G#\	-ram	8f\	-ram	8b\	-ram
16bb\JJ	.	16dd\JJ	.	.	.	.	.	.	.
!LO:LB:g=original	!	!	!	!	!	!	!	!	!
16aa\LL	.	16cc#X\LL	.	8Gn\	om-	8en\	om-	8a\	om-
16cc#X\	.	16aa\	.	.	.	.	.	.	.
16cc#\	.	16aa\	.	8G\	-ni	8e\	-ni	8a\	-ni
16aa\JJ	.	16cc#\JJ	.	.	.	.	.	.	.
16aa\LL	.	16dd\LL	.	8F\	po-	8d\	po-	8a\	po-
16dd\	.	16aa\	.	.	.	.	.	.	.
16dd\	.	16aa\	.	16F\	-pu-	16d\	-pu-	16a\	-pu-
16aa\JJ	.	16dd\JJ	.	16F\	-lo	16d\	-lo	16a\	-lo
=20	=20	=20	=20	=20	=20	=20	=20	=20	=20
*	*	*	*	*2\right	*	*2\right	*	*	*
!	!	!	!	!	!	!	!	!LO:SIC:v:l:s:t=eius	!
16aa\LL	.	16dd\LL	.	2B-\	e-	2d\	e-	(>4a\	ſu-
16dd\	.	16aa\	.	.	.	.	.	.	.
16dd\	.	16aa\	.	.	.	.	.	.	.
16aa\JJ	.	16dd\JJ	.	.	.	.	.	.	.
16gg\LL	.	16dd\LL	.	.	.	.	.	4g\)	.
16dd\	.	16gg\	.	.	.	.	.	.	.
16dd\	.	16gg\	.	.	.	.	.	.	.
16gg\JJ	.	16dd\JJ	.	.	.	.	.	.	.
16aa\LL	.	16cc#X\LL	.	8A\	-ius	8en\	-ius	8a\	-o,
16cc#X\	.	16aa\	.	.	.	.	.	.	.
16cc#\	.	16aa\	.	16A\	prae-	16e\	prae-	16a\	prae-
16aa\JJ	.	16cc#\JJ	.	16A\	-ti-	16e\	-ti-	16a\	-ti-
16aa\LL	.	16cc#\LL	.	8G\	-o-	8e\	-o-	8a\	-o-
16cc#\	.	16aa\	.	.	.	.	.	.	.
16cc#\	.	16aa\	.	8G\	-sa	8e\	-sa	8a\	-sa
16aa\JJ	.	16cc#\JJ	.	.	.	.	.	.	.
!	!	!LO:LB:g=original	!	!	!	!LO:LB:g=original	!	!	!
=21	=21	=21	=21	=21	=21	=21	=21	=21	=21
16aa\LL	.	16dd\LL	.	8F\	in	8f\	in	8a\	in
16dd\	.	16aa\	.	.	.	.	.	.	.
16dd\	.	16aa\	.	8En\	Con-	8f\	Con-	8a\	Con-
16aa\JJ	.	16dd\JJ	.	.	.	.	.	.	.
16aa\LL	.	16ff\LL	.	8D\	-spec-	8f\	-spec-	8a\	-spec-
16ff\	.	16aa\	.	.	.	.	.	.	.
16ff\	.	16aa\	.	(>16En\LL	-tu	8f\	-tu	8a\	-tu
16aa\JJ	.	16ff\JJ	.	16F\JJ)	.	.	.	.	.
*	*	*	*	*	*	*	*	*custos:b-	*
!	!	!	!	!LO:LB:g=original	!	!	!	!LO:LB:g=original	!
16bb-\LL	.	16ff\LL	.	8G\	Do-	8d\	Do-	8b-\	Do-
16ff\	.	16bb-\	.	.	.	.	.	.	.
16ff\	.	16bb-\	.	16G\	-mi-	16d\	-mi-	16b-\	-mi-
16bb-\JJ	.	16ff\JJ	.	16G\	-ni	16d\	-ni	16b-\	-ni
16bb-\LL	.	16een\LL	.	8G\	mors	8g\	mors	8b-\	mors
16een\	.	16bb-\	.	.	.	.	.	.	.
16ee\	.	16bb-\	.	8G\	ſan-	8g\	ſan-	8b-\	ſan-
16bb-\JJ	.	16ee\JJ	.	.	.	.	.	.	.
=22	=22	=22	=22	=22	=22	=22	=22	=22	=22
!	!	!LO:SIC:v:s:t=16een	!	!	!	!	!	!	!
16bb-\LL	.	16ee-\LL	.	4C/	-cto-	4g\	-cto-	4b-\	-cto-
!LO:SIC:v:s:t=16een	!	!	!	!	!	!	!	!	!
16ee-\	.	16bb-\	.	.	.	.	.	.	.
!LO:SIC:v:s:t=16een	!	!	!	!	!	!	!	!	!
16ee-\	.	16bb-\	.	.	.	.	.	.	.
!	!	!LO:SIC:v:s:t=16een	!	!	!	!	!	!	!
16bb-\JJ	.	16ee-\JJ	.	.	.	.	.	.	.
16aa\LL	.	16ff\LL	.	4F\	-rum	4c\	-rum	4a\	-rum
16ff\	.	16aa\	.	.	.	.	.	.	.
16ff\	.	16aa\	.	.	.	.	.	.	.
16aa\JJ	.	16ff\JJ	.	.	.	.	.	.	.
*	*	*	*	*	*	*	*	*2\right	*
!LO:LB:g=original	!	!	!	!	!	!	!	!	!
16gg\LL	.	16ff\LL	.	2C/	e-	2c\	e-	2g\	e-
16ff\	.	16gg\	.	.	.	.	.	.	.
16ff\	.	16gg\	.	.	.	.	.	.	.
16gg\JJ	.	16ff\JJ	.	.	.	.	.	.	.
16gg\LL	.	16een\LL	.	.	.	.	.	.	.
16een\	.	16gg\	.	.	.	.	.	.	.
16ee\	.	16gg\	.	.	.	.	.	.	.
16gg\JJ	.	16ee\JJ	.	.	.	.	.	.	.
=23	=23	=23	=23	=23	=23	=23	=23	=23	=23
!	!LO:DY:b:t=p&colon;o	!	!LO:DY:b:t=p&colon;o:rj	!	!	!	!	!	!
4ff\	p	4ff\	p	4F\	-is,	4c\	-ius,	4a\	-ius,
!	!	!	!	!LO:TX:a:t=Solo.	!	!	!	!	!
8r	.	16ccc\LL	.	8r	.	4r	.	4r	.
.	.	16cc\	.	.	.	.	.	.	.
8f/	.	16aa\	.	8F\	o	.	.	.	.
.	.	16cc\JJ	.	.	.	.	.	.	.
*2\right	*	*	*	*	*	*	*	*	*
[>2cc\	.	16gg\LL	.	8.c\	Do-	2r	.	2r	.
.	.	16cc\	.	.	.	.	.	.	.
.	.	16ccc\	.	.	.	.	.	.	.
.	.	16cc\JJ	.	16c\	-mi-	.	.	.	.
.	.	16bb-\LL	.	4c\	-ne	.	.	.	.
.	.	16cc\	.	.	.	.	.	.	.
.	.	16aa\	.	.	.	.	.	.	.
.	.	16cc\JJ	.	.	.	.	.	.	.
!	!	!LO:LB:g=original	!	!	!	!	!	!	!
=24	=24	=24	=24	=24	=24	=24	=24	=24	=24
1cc_>	.	16een\LL	.	8.c\	qu-	00r	.	00r	.
.	.	16cc\	.	.	.	.	.	.	.
.	.	16aa\	.	.	.	.	.	.	.
.	.	16cc\JJ	.	16c\	-ia	.	.	.	.
.	.	16gg\LL	.	8c\	e-	.	.	.	.
.	.	16cc\	.	.	.	.	.	.	.
.	.	16ff\	.	8c\	-go	.	.	.	.
.	.	16cc\JJ	.	.	.	.	.	.	.
.	.	16een\LL	.	4.c\	ſer-	.	.	.	.
.	.	16cc\	.	.	.	.	.	.	.
.	.	16ff#X\	.	.	.	.	.	.	.
.	.	16cc\JJ	.	.	.	.	.	.	.
.	.	16gg\LL	.	.	.	.	.	.	.
.	.	16cc\	.	.	.	.	.	.	.
.	.	16aa\	.	8c\	-vus	.	.	.	.
.	.	16cc\JJ	.	.	.	.	.	.	.
=25	=25	=25	=25	=25	=25	=25-	=25	=25-	=25
8cc\L]	.	8aa\L	.	8c\	tu-	.	.	.	.
8b-\J	.	8gg\J	.	8B-\	-us,	.	.	.	.
8r	.	16ddd\LL	.	8r	.	.	.	.	.
.	.	16dd\	.	.	.	.	.	.	.
8g/	.	16bb-\	.	16G\	e-	.	.	.	.
.	.	16dd\JJ	.	16G\	-go	.	.	.	.
*	*	*	*	*custos:d	*	*	*	*	*
!	!	!	!	!LO:LB:g=original	!	!	!	!	!
[>2dd\	.	16aa\LL	.	[>2d\	ſer-	.	.	.	.
.	.	16dd\	.	.	.	.	.	.	.
.	.	16ddd\	.	.	.	.	.	.	.
.	.	16dd\JJ	.	.	.	.	.	.	.
!	!	!LO:TX:a:t=c	!	!	!	!	!	!	!
.	.	16ccc\LL	.	.	.	.	.	.	.
!	!	!LO:TX:a:t=d	!	!	!	!	!	!	!
.	.	16dd\	.	.	.	.	.	.	.
.	.	16bb-\	.	.	.	.	.	.	.
!	!	!LO:TX:a:t=d	!	!	!	!	!	!	!
.	.	16dd\JJ	.	.	.	.	.	.	.
=26	=26	=26	=26	=26	=26	=26-	=26	=26-	=26
2dd\]	.	16ff#X\LL	.	2d\_>	.	.	.	.	.
.	.	16dd\	.	.	.	.	.	.	.
.	.	16bb-\	.	.	.	.	.	.	.
.	.	16dd\JJ	.	.	.	.	.	.	.
.	.	16aa\LL	.	.	.	.	.	.	.
.	.	16dd\	.	.	.	.	.	.	.
.	.	16gg\	.	.	.	.	.	.	.
.	.	16dd\JJ	.	.	.	.	.	.	.
!	!	!LO:LB:g=original	!	!	!	!	!	!	!
16dd\LL	.	16ff#X\LL	.	16d\LL]	.	.	.	.	.
16cc\	.	16dd\	.	16c\	.	.	.	.	.
16b-\	.	16aa\	.	16B-\	.	.	.	.	.
16a\JJ	.	16dd\JJ	.	16A\JJ	.	.	.	.	.
8g/L	.	16ccc\LL	.	(>8G\L	-vus	.	.	.	.
.	.	16dd\	.	.	.	.	.	.	.
8a/J	.	16ccc\	.	8A\J)	.	.	.	.	.
.	.	16dd\JJ	.	.	.	.	.	.	.
=27	=27	=27	=27	=27	=27	=27-	=27	=27-	=27
8a/L	.	8ccc\L	.	8A\	tu-	.	.	.	.
8g/J	.	8bb-\J	.	8G\	-us	.	.	.	.
4r	.	4r	.	8r	.	.	.	.	.
.	.	.	.	8G\	et	.	.	.	.
!	!	!LO:TX:b:t=Volti Subito	!	!	!	!	!	!	!
2r	.	2r	.	(>16A\LL	fi-	.	.	.	.
.	.	.	.	16B-X\JJ)	.	.	.	.	.
.	.	.	.	(>16c\LL	-li-	.	.	.	.
.	.	.	.	16B-\JJ)	.	.	.	.	.
.	.	.	.	(>16A\LL	-us	.	.	.	.
.	.	.	.	16G\JJ)	.	.	.	.	.
.	.	.	.	(>16F#X\LL	an-	.	.	.	.
.	.	.	.	16En\JJ)	.	.	.	.	.
*	*	*custos:b	*	*	*	*	*	*	*
!	!	!LO:PB:g=original	!	!	!	!	!	!	!
=28	=28	=28	=28	=28	=28	=28	=28	=28	=28
8ff#X\L	.	8aa\L	.	8F#X\	-cil-	2r	.	2r	.
8b-\J	.	[>8gg\J	.	8G\	-lae	.	.	.	.
4at>/	.	8gg\L]	.	4At>\	tu-	.	.	.	.
.	.	8ff#X\J	.	.	.	.	.	.	.
!!mixed beam:problem
!LO:TX:t=P:problem=mixed beam	!LO:DY:b:t=for&colon;	!LO:TX:t=P:problem=mixed beam	!	!	!	!	!	!	!
8g/L	f	8gg\L	.	4G\	-ae,	4r	.	4r	.
8dd\J	.	8g/J	.	.	.	.	.	.	.
!	!	!	!LO:DY:a:t=for&colon;	!	!	!	!	!	!
16gg\LL	.	16b-\LL	f	8G\	di-	8d\	di-	8g\	di-
16b-\	.	16gg\	.	.	.	.	.	.	.
16b-\	.	16gg\	.	8G\	-ru-	8d\	-ru-	8g\	-ru-
16gg\JJ	.	16b-\JJ	.	.	.	.	.	.	.
!LO:LB:g=original	!	!	!	!	!	!	!	!	!
=29	=29	=29	=29	=29	=29	=29	=29	=29	=29
16gg\LL	.	16cc\LL	.	8c\	-pis-	8e-\	-pis-	8g\	-pis-
16cc\	.	16gg\	.	.	.	.	.	.	.
16b-\	.	16gg\	.	8G\	-ti	8d\	-ti	8g\	-ti
16gg\JJ	.	16b-\JJ	.	.	.	.	.	.	.
*	*	*	*	*custos:c	*	*	*	*	*
!	!	!	!	!LO:LB:g=original	!	!	!	!	!
16gg\LL	.	16cc\LL	.	8c\	Vin-	8e-\	Vin-	8g\	Vin-
16cc\	.	16gg\	.	.	.	.	.	.	.
16cc\	.	16gg\	.	16c\	-cu-	16e-\	-cu-	16g\	-cu-
16gg\JJ	.	16cc\JJ	.	16c\	-la	16e-\	-la	16g\	-la
!	!	!	!	!	!	!LO:LB:g=original	!	!	!
16gg\LL	.	16cc\LL	.	2A-X\	me-	(>4e-\	me-	(>4g\	Me-
16cc\	.	16gg\	.	.	.	.	.	.	.
16cc\	.	16gg\	.	.	.	.	.	.	.
16gg\JJ	.	16cc\JJ	.	.	.	.	.	.	.
16ff\LL	.	16cc\LL	.	.	.	4f\)	.	4f\)	.
16cc\	.	16ff\	.	.	.	.	.	.	.
16cc\	.	16ff\	.	.	.	.	.	.	.
16ff\JJ	.	16cc\JJ	.	.	.	.	.	.	.
=30	=30	=30	=30	=30	=30	=30	=30	=30	=30
16gg\LL	.	16bn\LL	.	8G\	-a	8d\	-a	8g\	-a
16bn\	.	16gg\	.	.	.	.	.	.	.
16cc\	.	16gg\	.	8C/	ti-	8e-\	ti-	8g\	ti-
16gg\JJ	.	16cc\JJ	.	.	.	.	.	.	.
*	*	*	*	*	*	*	*	*custos:a-	*
!	!	!	!	!	!	!	!	!LO:LB:g=original	!
16aa-X\LL	.	16cc\LL	.	8F\	-bi	8f\	-bi	8a-X\	-bi
16cc\	.	16aa-X\	.	.	.	.	.	.	.
16cc\	.	16gg\	.	8C/	ſa-	8e-\	ſa-	8g\	ſa-
16gg\JJ	.	16cc\JJ	.	.	.	.	.	.	.
16aa-X\LL	.	16cc\LL	.	8F\	-cri-	8f\	-cri-	8a-X\	-cri-
16cc\	.	16aa-X\	.	.	.	.	.	.	.
16cc\	.	16gg\	.	8c\	-fi-	8e-\	-fi-	8g\	-fi-
16gg\JJ	.	16cc\JJ	.	.	.	.	.	.	.
16gg\LL	.	16bn\LL	.	(>8G\L	-ca-	(>8d\L	-ca-	4g\	-ca-
16bn\	.	16gg\	.	.	.	.	.	.	.
16cc\	.	16gg\	.	8c\J)	.	8e-\J)	.	.	.
16gg\JJ	.	16cc\JJ	.	.	.	.	.	.	.
!	!	!LO:LB:g=original	!	!	!	!	!	!	!
=31	=31	=31	=31	=31	=31	=31	=31	=31	=31
!!mixed beam:problem
!LO:TX:t=P:problem=mixed beam	!	!	!	!	!	!	!	!	!
8dd\L	.	8bn/L	.	8G\	-bo	8d\	-bo	8g\	-bo
8g/	.	8g/	.	8r	.	8r	.	8r	.
8bn/	.	8b/	.	4r	.	4r	.	4r	.
8dd/J	.	8dd/J	.	.	.	.	.	.	.
*	*	*2\right	*	*	*	*	*	*	*
2ff\	.	2ff\	.	4r	.	4r	.	4r	.
.	.	.	.	(>32d\LLL	et	4f\	et	4bn\	et
.	.	.	.	32c\	.	.	.	.	.
.	.	.	.	32Bn\	.	.	.	.	.
.	.	.	.	32A\	.	.	.	.	.
.	.	.	.	32G\	.	.	.	.	.
.	.	.	.	32F\	.	.	.	.	.
.	.	.	.	32E-\	.	.	.	.	.
.	.	.	.	32D\JJJ)	.	.	.	.	.
=32	=32	=32	=32	=32	=32	=32	=32	=32	=32
16ee-\LL	.	16ee-\LL	.	8C/	no-	8g\	no-	8cc\	no-
16ee-\	.	16ccc\	.	.	.	.	.	.	.
16ee-\	.	16ccc\	.	8E-\	-men	8c\	-men	8g\	-men
16ccc\JJ	.	16ee-\JJ	.	.	.	.	.	.	.
16aa-X\LL	.	16dd\LL	.	8F\	Do-	8d\	Do-	8a-X\	Do-
16dd\	.	16aa-X\	.	.	.	.	.	.	.
16dd\	.	16aa-\	.	16D\	-mi-	16d\	-mi-	16a-\	-mi-
16aa-\JJ	.	16dd\JJ	.	16D\	-ni	16d\	-ni	16a-\	-ni
!LO:LB:g=original	!	!	!	!LO:LB:g=original	!	!	!	!	!
16gg\LL	.	16dd\LL	.	8G\	in-	8d\	in-	8g\	in
16dd\	.	16gg\	.	.	.	.	.	.	.
16ee-\	.	16gg\	.	8C/	-vo-	8c\	-vo-	8g\	vo-
16gg\JJ	.	16ee-\JJ	.	.	.	.	.	.	.
!!mixed beam:problem
!	!	!	!	!LO:TX:t=P:problem=mixed beam	!	!	!	!	!
16gg\LL	.	16dd\LL	.	(>8G\L	-ca-	(>8c\L	-ca-	4g\	-ca-
16dd\	.	16gg\	.	.	.	.	.	.	.
16dd\	.	16gg\	.	8GG/J)	.	8Bn\J)	.	.	.
16gg\JJ	.	16dd\JJ	.	.	.	.	.	.	.
=33	=33	=33	=33	=33	=33	=33	=33	=33	=33
8ee-\L	.	8cc\L	.	4C/	-bo,	4c\	-bo	4g\	-bo
8ee-\	.	8gg\	.	.	.	.	.	.	.
!	!	!	!	!	!	!	!	!LO:TX:a:t=Solo.	!
8.ddt>\	.	8.ffT>\	.	4r	.	4r	.	4r	.
!	!LO:DY:b:t=p&colon;o	!	!	!	!	!	!	!	!
16dd\Jk	p	16ff\Jk	.	.	.	.	.	.	.
4cc\	.	4ee-\	.	2rBB	.	2r	.	8g\	Vo-
.	.	.	.	.	.	.	.	(>16f\LL	-ta
.	.	.	.	.	.	.	.	16e-\JJ)	.
!	!	!	!LO:DY:a:t=p&colon;o	!	!	!	!	!	!
8f/L	.	8dd\L	p	.	.	.	.	8d\	me-
8e-/J	.	8cc\J	.	.	.	.	.	8c/	-a
*	*	*	*	*	*	*	*	*custos:B-	*
!	!	!	!	!	!	!LO:LB:g=original	!	!LO:LB:g=original	!
=34	=34	=34	=34	=34	=34	=34	=34	=34	=34
.	.	8qqcc/	.	.	.	.	.	8qqc/	.
4d/	.	4bn\	.	00r	.	00r	.	8Bn/	Do-
.	.	.	.	.	.	.	.	16B/	-mi-
.	.	.	.	.	.	.	.	16B/	-no
16cc\LL	.	16gg\LL	.	.	.	.	.	8r	.
16ee-\	.	16ccc\	.	.	.	.	.	.	.
16ff\	.	16ddd\	.	.	.	.	.	16g\	red-
16gg\JJ	.	16eee-\JJ	.	.	.	.	.	16g\	-dam
8ff\L	.	16ddd\LL	.	.	.	.	.	(>16a-X\LL	in
.	.	16aa-X\	.	.	.	.	.	16f\JJ)	.
8cc\	.	16ccc\	.	.	.	.	.	(>16cc\LL	Con-
.	.	16gg\JJ	.	.	.	.	.	16g\JJ)	.
8cc\	.	4ffT>\	.	.	.	.	.	4f\	-spe-
8bn\J	.	.	.	.	.	.	.	.	.
!	!	!LO:LB:g=original	!	!	!	!	!	!	!
=35	=35	=35	=35	=35-	=35	=35-	=35	=35	=35
.	.	.	.	.	.	.	.	8qqf/	.
16cc\LL	.	16ee-\LL	.	.	.	.	.	4e-\	-ctu
16ee-\	.	16gg\	.	.	.	.	.	.	.
16ee-\	.	16gg\	.	.	.	.	.	.	.
16gg\JJ	.	16ccc\JJ	.	.	.	.	.	.	.
16ccc\LL	.	16eee-\LL	.	.	.	.	.	8r	.
16gg\	.	16ccc\	.	.	.	.	.	.	.
16ee-\	.	16gg\	.	.	.	.	.	16e-\	in
16cc\JJ	.	16ee-\JJ	.	.	.	.	.	16e-\	Con-
!!mixed beam:problem
!LO:TX:t=P:problem=mixed beam	!	!	!	!	!	!	!	!	!
8g/L	.	8dd\L	.	.	.	.	.	8d\	-spe-
8dd\	.	8gg\J	.	.	.	.	.	8g\	-ctu
8dd\	.	8r	.	.	.	.	.	8r	.
!LO:TX:b:t=Volti Subito	!	!	!	!	!	!	!	!	!
8dd\J	.	8gg\	.	.	.	.	.	8g\	om-
*custos:b	*	*	*	*	*	*	*	*	*
!LO:PB:g=original	!	!	!	!	!	!	!	!	!
=36	=36	=36	=36	=36-	=36	=36-	=36	=36	=36
!LO:TUP:a:problem=klamra łukowa	!	!LO:TUP:a:problem=klamra łukowa	!	!	!	!	!	!LO:TUP:a:problem=klamra łukowa	!
12een\L	.	12gg\L	.	.	.	.	.	12g\L	.
12dd\	.	12ff\	.	.	.	.	.	12f\	.
12cc\J	.	12een\J	.	.	.	.	.	12en\J	.
!LO:TUP:b:problem=klamra łukowa	!	!LO:TUP:a:problem=klamra łukowa	!	!	!	!	!	!LO:TUP:a:problem=klamra łukowa	!
12g/L	.	12ee\L	.	.	.	.	.	12e\L	.
12f/	.	12dd\	.	.	.	.	.	12d\	.
12en/J	.	12cc\J	.	.	.	.	.	12c\J	.
!!mixed beam:problem
!LO:TX:t=P:problem=mixed beam	!	!	!	!	!	!	!	!	!
8f/L	.	8cc\L	.	.	.	.	.	8c/	.
8cc\	.	8ff\J	.	.	.	.	.	8f\	-nis
*	*	*	*	*	*	*	*	*custos:f	*
!	!	!	!	!	!	!	!	!LO:LB:g=original	!
8cc\	.	8r	.	.	.	.	.	8r	.
8cc\J	.	8ff\	.	.	.	.	.	8f\	po-
=37	=37	=37	=37	=37-	=37	=37-	=37	=37	=37
!LO:TUP:a:problem=klamra łukowa	!	!LO:TUP:a:problem=klamra łukowa	!	!	!	!	!	!LO:TUP:a:problem=klamra łukowa	!
12dd\L	.	12ff\L	.	.	.	.	.	12f\L	.
12cc\	.	12ee-X\	.	.	.	.	.	12e-\	.
12b-X\J	.	12dd\J	.	.	.	.	.	12d\J	.
!LO:TUP:b:problem=klamra łukowa	!	!LO:TUP:a:problem=klamra łukowa	!	!	!	!	!	!LO:TUP:a:problem=klamra łukowa	!
12f/L	.	12dd\L	.	.	.	.	.	12d\L	.
12e-X/	.	12cc\	.	.	.	.	.	12c\	.
12d/J	.	12b-\J	.	.	.	.	.	12B-\J	.
!!mixed beam:problem
!LO:TX:t=P:problem=mixed beam	!	!	!	!	!	!	!	!	!
8e-/L	.	8b-\L	.	.	.	.	.	8B-/	.
8b-\	.	8ee-\J	.	.	.	.	.	16e-\	-pu-
.	.	.	.	.	.	.	.	16e-\	-li
8b-\	.	8r	.	.	.	.	.	8r	.
8ee-\J	.	8ee-\	.	.	.	.	.	8b-\	po-
=38	=38	=38	=38	=38-	=38	=38-	=38	=38	=38
!	!	!LO:TUP:a:problem=klamra łukowa	!	!	!	!	!	!LO:TUP:a:problem=klamra łukowa	!
8ee-\L	.	12ccc\L	.	1r	.	1r	.	12cc\L	.
.	.	12bb-\	.	.	.	.	.	12b-\	.
8ee-\	.	.	.	.	.	.	.	.	.
.	.	12aa-X\J	.	.	.	.	.	12a-X\J	.
!	!	!LO:TUP:a:problem=klamra łukowa	!	!	!	!	!	!LO:TUP:a:problem=klamra łukowa	!
8ee-\	.	12aa-\L	.	.	.	.	.	12a-\L	.
.	.	12gg\	.	.	.	.	.	12g\	.
8aa-X\J	.	.	.	.	.	.	.	.	.
.	.	12ff\J	.	.	.	.	.	12f\J	.
!	!	!LO:LB:g=original	!	!	!	!	!	!	!
4gg\	.	4ee-\	.	.	.	.	.	8e-\	.
.	.	.	.	.	.	.	.	16e-\	-pu-
.	.	.	.	.	.	.	.	16e-\	-li
!	!	!	!LO:DY:b:t=for&colon;	!	!	!	!	!	!
4dd\	.	4ffT>\	f	.	.	.	.	4fT>\	e-
=39	=39	=39	=39	=39	=39	=39	=39	=39	=39
!	!LO:DY:a:t=for&colon;	!	!	!	!	!	!	!	!
16gg\LL	f	16ee-\LL	.	4E-\	in	4e-\	In	8e-\	-ius
16ee-\	.	16gg\	.	.	.	.	.	.	.
16ee-\	.	16gg\	.	.	.	.	.	8g\	in
16gg\JJ	.	16ee-\JJ	.	.	.	.	.	.	.
16aa-X\LL	.	16cc\LL	.	8.E-\	a-	8.e-\	a-	8.a-X\	a-
16cc\	.	16aa-X\	.	.	.	.	.	.	.
16cc\	.	16aa-\	.	.	.	.	.	.	.
16aa-\JJ	.	16cc\JJ	.	16E-\	.	16e-\	.	16a-\	.
!LO:LB:g=original	!	!	!	!	!	!	!	!LO:TX:b:t=V&colon; S&colon;	!
16gg\LL	.	16b-\LL	.	8E-\	-triſs	8e-\	-trÿs	8g\	-trÿs
16b-\	.	16gg\	.	.	.	.	.	.	.
*	*	*	*	*	*	*	*	*custos:a-	*
!	!	!	!	!	!	!	!	!LO:PB:g=original	!
16aa-X\	.	16dd\	.	4E-\	Do-	4f\	Do-	4a-X\	Do-
16dd\JJ	.	16aa-X\JJ	.	.	.	.	.	.	.
16aa-\LL	.	16dd\LL	.	.	.	.	.	.	.
16dd\	.	16aa-\	.	.	.	.	.	.	.
16gg\	.	16ee-\	.	8E-\	-mus	8B-\	-mus	8g\	-mus
16ee-\JJ	.	16gg\JJ	.	.	.	.	.	.	.
=40	=40	=40	=40	=40	=40	=40	=40	=40	=40
16bb-\LL	.	16gg\LL	.	4.BB-/	Do-	4.B-\	Do-	(>8b-\L	Do-
16gg\	.	16bb-\	.	.	.	.	.	.	.
16aa-X\	.	16ff\	.	.	.	.	.	8a-X\	.
16ff\JJ	.	16aa-X\JJ	.	.	.	.	.	.	.
16gg\LL	.	16ee-\LL	.	.	.	.	.	8g\J)	.
16ee-\	.	16gg\	.	.	.	.	.	.	.
16ff\	.	16dd\	.	8BB-/	-mi-	8B-\	-mi-	8f\	-mi-
16dd\JJ	.	16ff\JJ	.	.	.	.	.	.	.
16gg\LL	.	16ee-\LL	.	(>8E-\L	.	4.B-\	-ni	4.g\	-ni
16ee-\	.	16gg\	.	.	.	.	.	.	.
16ee-\	.	16gg\	.	8G\	.	.	.	.	.
16gg\JJ	.	16ee-\JJ	.	.	.	.	.	.	.
16gg\LL	.	16ee-\LL	.	8B-\J)	.	.	.	.	.
16ee-\	.	16gg\	.	.	.	.	.	.	.
!	!	!	!	!LO:SIC:v:l:s:t=-ni	!	!	!	!	!
16ff\	.	16dd\	.	8BB-/	-in	8d\	in	8f\	in
16dd\JJ	.	16ff\JJ	.	.	.	.	.	.	.
=41	=41	=41	=41	=41	=41	=41	=41	=41	=41
16gg\LL	.	16ee-\LL	.	(>8E-\L	a-	4e-\	a-	4b-\	a-
16ee-\	.	16gg\	.	.	.	.	.	.	.
16ee-\	.	16gg\	.	8G\J)	.	.	.	.	.
16gg\JJ	.	16ee-\JJ	.	.	.	.	.	.	.
16gg\LL	.	16ee-\LL	.	8B-\	-trÿs	8e-\	-trÿs	8b-\	-trÿs
16ee-\	.	16gg\	.	.	.	.	.	.	.
16ff\	.	16dd\	.	8BB-/	.	8d\	.	8b-\	.
16dd\JJ	.	16ff\JJ	.	.	.	.	.	.	.
16dd\LL	.	16ff\LL	.	4.F\	do-	(>8d\L	do-	4.f\	do-
16ff\	.	16ddd\	.	.	.	.	.	.	.
16cc\	.	16ee-\	.	.	.	8c\J)	.	.	.
16ee-\JJ	.	16ccc\JJ	.	.	.	.	.	.	.
16b-\LL	.	16dd\LL	.	.	.	(>8B-\L	-mus	.	.
16dd\	.	16bb-\	.	.	.	.	.	.	.
16an\	.	16cc\	.	8F\	-mus	8A\J)	.	8f\	-mus
16cc\JJ	.	16aan\JJ	.	.	.	.	.	.	.
*	*	*	*	*custos:BB-	*	*	*	*	*
!	!	!LO:LB:g=original	!	!LO:LB:g=original	!	!	!	!	!
=42	=42	=42	=42	=42	=42	=42	=42	=42	=42
8dd\L	.	8bb-\L	.	(<16BB-/LL	Do-	8.B-\	Do-	8.f\	Do-
.	.	.	.	16D/JJ)	.	.	.	.	.
8ff\	.	8ff\	.	(>16F\LL	-mi-	.	.	.	.
.	.	.	.	16B-\JJ)	.	16B-\	-mi-	16f\	-mi-
8ff\	.	8ff\	.	(>16An\LL	-ni	8c\	-ni	8an\	-ni
.	.	.	.	16G\JJ)	.	.	.	.	.
8aan\J	.	8aa\J	.	(>16F\LL	in	8c\	in	8a\	in
.	.	.	.	16E-\JJ)	.	.	.	.	.
!LO:LB:g=original	!	!	!	!	!	!	!	!	!
8ff\L	.	8ff\L	.	16D\LL	me-	8d\	me-	8b-\	me-
.	.	.	.	16B-\	.	.	.	.	.
8bb-\	.	8bb-\	.	16A\	.	8d\	-di-	8b-\	-di-
.	.	.	.	16B-\JJ	.	.	.	.	.
8ee-\	.	8ee-\	.	16C\LL	-di-	4e-\	-o	4an\	-o
.	.	.	.	16A\	.	.	.	.	.
8aa\J	.	8aa\J	.	16G\	.	.	.	.	.
.	.	.	.	16A\JJ	.	.	.	.	.
!	!	!	!	!	!	!LO:LB:g=original	!	!	!
=43	=43	=43	=43	=43	=43	=43	=43	=43	=43
!	!	!	!	!LO:TUP:b:problem=klamra łukowa	!	!	!	!	!
8dd\L	.	8dd\L	.	24BB-/LL	-o	(>8f\L	tu-	(>8b-\L	tu-
.	.	.	.	24C/	.	.	.	.	.
.	.	.	.	24D/JJ	.	.	.	.	.
!	!	!	!	!LO:TUP:b:problem=klamra łukowa	!	!	!	!	!
8ee-\	.	8ee-\	.	24C/LL	tu-	8e-\J)	.	8a\J)	.
.	.	.	.	24D/	.	.	.	.	.
.	.	.	.	24E-/JJ	.	.	.	.	.
!	!	!	!	!LO:TUP:a:problem=klamra łukowa	!	!	!	!	!
8ff\	.	8ff\	.	24D\LL	-i	8d\	-i	8b-\	-i
.	.	.	.	24E-\	.	.	.	.	.
.	.	.	.	24F\JJ	.	.	.	.	.
!	!	!	!	!LO:TUP:a:problem=klamra łukowa	!	!	!	!	!
8gg\J	.	8gg\J	.	24E-\LL	Ie-	8c\	Ie-	8b-\	Ie-
.	.	.	.	24F\	.	.	.	.	.
.	.	.	.	24G\JJ	.	.	.	.	.
*	*	*	*	*	*	*	*	*custos:f	*
!	!	!	!	!	!	!	!	!LO:LB:g=original	!
16dd\LL	.	16ff\LL	.	4F\	-ru-	4d\	-ru-	4f\	-ru-
16ff\	.	16ddd\	.	.	.	.	.	.	.
16ff\	.	16ddd\	.	.	.	.	.	.	.
16dd\JJ	.	16ff\JJ	.	.	.	.	.	.	.
16cc\LL	.	16ee-\LL	.	4FF/	-sa-	4c\	-ſa-	4a\	-sa-
16ee-\	.	16ccc\	.	.	.	.	.	.	.
16ee-\	.	16ccc\	.	.	.	.	.	.	.
16cc\JJ	.	16ee-\JJ	.	.	.	.	.	.	.
=44	=44	=44	=44	=44	=44	=44	=44	=44	=44
!!mixed beam:problem
!	!	!LO:TX:t=P:problem=mixed beam	!LO:DY:a:t=piano	!	!	!LO:TX:a:t=Solo.	!	!	!
8b-/L	.	8dd\L	p	4BB-/	-lem	4B-\	-lem,	4b-\	-lem,
8B-/J	.	8d/J	.	.	.	.	.	.	.
!	!LO:DY:a:t=piano	!	!	!LO:N:vis=4.	!	!	!	!	!
4dd\	p	4ff\	.	4d\	glo-	4f\	Glo-	4r	.
16cc\LL	.	16ee-\LL	.	16c\LL	.	(>16e-\LL	.	2r	.
16b-\	.	16dd\	.	16A\JJ	.	16d\JJ)	.	.	.
16cc\	.	16ee-\	.	16c\LL	-ri-	(>16e-\LL	-ri-	.	.
16dd\JJ	.	16ff\JJ	.	16d\JJ	.	16f\JJ)	.	.	.
8cc\L	.	8ee-\L	.	8c\L	-a	8e-\L	-a	.	.
16b-\L	.	16dd\L	.	16B-\L	.	16d\L	.	.	.
16a\JJ	.	16cc\JJ	.	16A\JJ	.	16c\JJ	.	.	.
*	*	*	*	*custos:B-	*	*	*	*	*
!LO:TX:t=P:problem=brak kreski taktowej	!	!	!	!	!	!	!	!	!
!	!	!	!	!LO:LB:g=original	!	!	!	!	!
=45-	=45	=45	=45	=45	=45	=45	=45	=45	=45
!!mixed beam:problem
!	!	!LO:TX:t=P:problem=mixed beam	!	!	!	!	!	!	!
8b-\L	.	8dd\L	.	8B-\	Pa-	8d\	Pa-	00r	.
8b-\	.	8d/J	.	8F\	-tri	8B-\	-tri	.	.
8dd\	.	16b-\LL	.	8r	.	8r	.	.	.
.	.	16dd\	.	.	.	.	.	.	.
8dd\J	.	16gg\	.	8F\	et	8B-\	et	.	.
.	.	[>16bb-\JJ	.	.	.	.	.	.	.
8gg\	.	16bb-\LL]	.	8En\	Fi-	(>16B-\LL	Fi-	.	.
.	.	16gg\	.	.	.	16G\	.	.	.
4ff\	.	16aa\	.	4F\	.	16A\	.	.	.
.	.	16ff\JJ	.	.	.	16F\JJ)	.	.	.
.	.	4ggT>\	.	.	.	8.G/	.	.	.
8een\	.	.	.	8E\	-li-	.	.	.	.
.	.	.	.	.	.	16G/	-li-	.	.
=46	=46	=46	=46	=46	=46	=46	=46	=46-	=46
8ff\	.	8ff\L	.	8F\	-o	8F/	-o	.	.
4ff\	.	8ccc\	.	8c\	et	4f\	et	.	.
.	.	8aa\	.	8A\L	ſpi-	.	.	.	.
8ff\	.	8ff\J	.	8F\J	.	8f\	ſpi-	.	.
!LO:TUP:a:problem=klamra łukowa	!	!	!	!	!	!LO:TUP:a:problem=klamra łukowa	!	!	!
12ff\L	.	8bb-\	.	8B-\	-ri-	12f\L	-ri-	.	.
12een\	.	.	.	.	.	12en\	.	.	.
.	.	4bb-\	.	4B-\	-tu-	.	.	.	.
12dd\J	.	.	.	.	.	12d\J	.	.	.
*	*	*	*	*	*	*custos:d	*	*	*
!LO:TUP:a:problem=klamra łukowa	!	!	!	!	!	!LO:LB:g=original	!	!	!
12dd\L	.	.	.	.	.	12d\L	-tu-	.	.
12cc\	.	.	.	.	.	12c\	.	.	.
.	.	8bb-\	.	8B-\	-i	.	.	.	.
12b-\J	.	.	.	.	.	12B-\J	.	.	.
!LO:LB:g=original	!	!LO:LB:g=original	!	!	!	!	!	!	!
=47	=47	=47	=47	=47	=47	=47	=47	=47-	=47
!	!	!LO:TUP:a:problem=klamra łukowa	!	!LO:TUP:a:problem=klamra łukowa	!	!	!	!	!
8een\	.	12bb-\L	.	12B-\L	ſan-	8en\	-i	.	.
.	.	12aa\	.	12A\	.	.	.	.	.
4ee\	.	.	.	.	.	4e\	ſan-	.	.
.	.	12gg\J	.	12G\J	.	.	.	.	.
!	!	!LO:TUP:a:problem=klamra łukowa	!	!LO:TUP:a:problem=klamra łukowa	!	!	!	!	!
.	.	12gg\L	.	12G\L	-cto	.	.	.	.
.	.	12ff\	.	12F\	.	.	.	.	.
8ee\	.	.	.	.	.	8e\	-cto	.	.
.	.	12een\J	.	12En\J	.	.	.	.	.
!LO:TUP:a:problem=klamra łukowa	!	!	!	!LO:TX:a:t=a	!	!LO:TUP:a:problem=klamra łukowa	!	!	!
12ee\L	.	8aa\	.	8A\	ſi-	12e\L	ſi-	.	.
12dd\	.	.	.	.	.	12d\	.	.	.
!	!	!	!	!LO:TX:a:t=a	!	!	!	!	!
.	.	4aa\	.	4A\	-cut	.	.	.	.
12cc\J	.	.	.	.	.	12c\J	.	.	.
!LO:TUP:a:problem=klamra łukowa	!	!	!	!	!	!LO:TUP:a:problem=klamra łukowa	!	!	!
12cc\L	.	.	.	.	.	12c\L	-cut	.	.
12b-\	.	.	.	.	.	12B-\	.	.	.
!	!	!	!	!LO:TX:b:t=V&colon; S&colon;	!	!	!	!	!
!	!	!	!	!LO:TX:a:t=a	!	!	!	!	!
.	.	8aa\	.	8A\	e-	.	.	.	.
12a\J	.	.	.	.	.	12A\J	.	.	.
*	*	*	*	*custos:A	*	*	*	*	*
!	!	!	!	!LO:PB:g=original	!	!	!	!	!
=48	=48	=48	=48	=48	=48	=48	=48	=48-	=48
!	!	!LO:TUP:a:problem=klamra łukowa	!	!LO:TUP:a:problem=klamra łukowa	!	!	!	!	!
8dd\	.	12aa\L	.	12A\L	-rat	8d\	e-	.	.
.	.	12gg\	.	12G\	.	.	.	.	.
4dd\	.	.	.	.	.	4d\	-rat	.	.
.	.	12ff\J	.	12F\J	.	.	.	.	.
!	!	!LO:TUP:a:problem=klamra łukowa	!	!LO:TUP:a:problem=klamra łukowa	!	!	!	!	!
.	.	12ff\L	.	12F\L	in	.	.	.	.
.	.	12een\	.	12En\	.	.	.	.	.
8dd\	.	.	.	.	.	8d\	in	.	.
.	.	12dd\J	.	12D\J	.	.	.	.	.
!LO:TUP:a:problem=klamra łukowa	!	!	!	!	!	!LO:TUP:a:problem=klamra łukowa	!	!	!
12dd\L	.	8gg\	.	8G\	prin-	12d\L	prin-	.	.
12cc#X\	.	.	.	.	.	12c#X\	.	.	.
.	.	4gg\	.	4G\	-ci-	.	.	.	.
12bn\J	.	.	.	.	.	12Bn\J	.	.	.
!LO:TUP:b:problem=klamra łukowa	!	!	!	!	!	!LO:TUP:a:problem=klamra łukowa	!	!	!
12b/L	.	.	.	.	.	12B\L	-ci-	.	.
12a/	.	.	.	.	.	12A\	.	.	.
.	.	8gg\	.	8G\	-pi-	.	.	.	.
12g/J	.	.	.	.	.	12G\J	.	.	.
=49	=49	=49	=49	=49	=49	=49	=49	=49-	=49
!	!	!LO:TUP:a:problem=klamra łukowa	!	!LO:TUP:a:problem=klamra łukowa	!	!	!	!	!
8cc#X\	.	12gg\L	.	12G\L	-o	8c#X\	.	1r	.
.	.	12ff\	.	12F\	.	.	.	.	.
4cc#\	.	.	.	.	.	8c#\	-pi-	.	.
.	.	12een\J	.	12En\J	.	.	.	.	.
!	!	!LO:TUP:a:problem=klamra łukowa	!	!LO:TUP:a:problem=klamra łukowa	!	!	!	!	!
.	.	12ee\L	.	12E\L	et	8c#\	-o	.	.
.	.	12dd\	.	12D\	.	.	.	.	.
8een\	.	.	.	.	.	8en\	et	.	.
.	.	12cc#X\J	.	12C#X\J	.	.	.	.	.
!!mixed beam:problem
!	!	!LO:TX:t=P:problem=mixed beam	!	!	!	!	!	!	!
16dd\LL	.	16ff\LL	.	(>8F\L	nunc	(>8d\L	nunc	.	.
16a\	.	16a/	.	.	.	.	.	.	.
16ff\	.	16aa\	.	8A\J)	.	8f\J)	.	.	.
16a\JJ	.	16a/JJ	.	.	.	.	.	.	.
!!mixed beam:problem
!	!	!LO:TX:t=P:problem=mixed beam	!	!	!	!	!	!	!
16een\LL	.	16gg\LL	.	(>8G\L	et	(>8en\L	et	.	.
16a\	.	16a/	.	.	.	.	.	.	.
16dd\	.	16ff\	.	8F\J)	.	8d\J)	.	.	.
16a\JJ	.	16a/JJ	.	.	.	.	.	.	.
*	*	*	*	*	*	*custos:d	*	*	*
!	!	!	!	!	!	!LO:LB:g=original	!	!	!
=50	=50	=50	=50	=50	=50	=50	=50	=50	=50
4en/	.	4dd\	.	(>4En\	ſem-	(>4d\	ſem-	2r	.
4cc#X\	.	4eent>\	.	4C#X/)	.	4ent>\)	.	.	.
!LO:LB:g=original	!	!	!	!	!	!	!	!	!
!!mixed beam:problem
!LO:TX:t=P:problem=mixed beam	!	!LO:TX:t=P:problem=mixed beam	!	!	!	!	!	!	!
8dd\L	.	8dd\L	.	4D/	-per	4d\	-per	4r	.
8d/J	.	8d/J	.	.	.	.	.	.	.
!	!LO:DY:a:t=for&colon;	!	!	!	!	!	!	!	!
16a/LL	f	16dd\LL	.	[>4F\	et	[>4d\	et	4a\	et
16dd\	.	16aa\	.	.	.	.	.	.	.
16dd\	.	16aa\	.	.	.	.	.	.	.
16aa\JJ	.	16dd\JJ	.	.	.	.	.	.	.
!	!	!LO:LB:g=original	!	!	!	!	!	!	!
=51	=51	=51	=51	=51	=51	=51	=51	=51	=51
16gg\LL	.	16bn\LL	.	4F\]	.	4d\]	.	2g\	in
16bn\	.	16gg\	.	.	.	.	.	.	.
16b\	.	16gg\	.	.	.	.	.	.	.
16gg\JJ	.	16b\JJ	.	.	.	.	.	.	.
16gg\LL	.	16cc\LL	.	4E-X\	in	4c\	in	.	.
16cc\	.	16gg\	.	.	.	.	.	.	.
16cc\	.	16gg\	.	.	.	.	.	.	.
16gg\JJ	.	16cc\JJ	.	.	.	.	.	.	.
!!mixed beam:problem
!LO:TX:t=P:problem=mixed beam	!	!LO:TX:t=P:problem=mixed beam	!	!	!	!	!	!	!
16ff#X\LL	.	16a/LL	.	4E-\	ſae-	4c\	ſae-	4f#X\	ſae-
16a/	.	16ff#X\	.	.	.	.	.	.	.
16a/	.	16ff#\	.	.	.	.	.	.	.
16ff#\JJ	.	16a/JJ	.	.	.	.	.	.	.
!!mixed beam:problem
!	!	!LO:TX:t=P:problem=mixed beam	!	!	!	!	!	!	!
16gg\LL	.	16b-X/LL	.	4D/	-cu-	4d\	-cu-	4g\	-cu-
16b-X\	.	16gg\	.	.	.	.	.	.	.
16b-\	.	16gg\	.	.	.	.	.	.	.
16gg\JJ	.	16b-/JJ	.	.	.	.	.	.	.
*	*	*	*	*custos:C	*	*	*	*	*
!	!	!	!	!LO:LB:g=original	!	!	!	!	!
=52	=52	=52	=52	=52	=52	=52	=52	=52	=52
16gg\LL	.	16b-\LL	.	2C#X/	-la	2en\	-la	2g\	-la
16b-\	.	16gg\	.	.	.	.	.	.	.
16b-\	.	16gg\	.	.	.	.	.	.	.
16gg\JJ	.	16b-\JJ	.	.	.	.	.	.	.
16gg\LL	.	16b-\LL	.	.	.	.	.	.	.
16b-\	.	16gg\	.	.	.	.	.	.	.
16b-\	.	16gg\	.	.	.	.	.	.	.
16gg\JJ	.	16b-\JJ	.	.	.	.	.	.	.
16aa\LL	.	16dd\LL	.	4.Cn/	ſae-	4.f#X\	ſae-	4.a\	ſae-
16dd\	.	16aa\	.	.	.	.	.	.	.
16dd\	.	16aa\	.	.	.	.	.	.	.
16aa\JJ	.	16dd\JJ	.	.	.	.	.	.	.
16aa\LL	.	16dd\LL	.	.	.	.	.	.	.
16dd\	.	16aa\	.	.	.	.	.	.	.
16dd\	.	16aa\	.	8C/	-cu-	8f#\	-cu-	8a\	-cu-
16aa\JJ	.	16dd\JJ	.	.	.	.	.	.	.
!LO:LB:g=original	!	!	!	!	!	!	!	!	!
=53	=53	=53	=53	=53	=53	=53	=53	=53	=53
16bb-\LL	.	16dd\LL	.	4BB-/	-lo-	4g\	-lo-	4b-\	-lo-
16dd\	.	16bb-\	.	.	.	.	.	.	.
16dd\	.	16bb-\	.	.	.	.	.	.	.
16bb-\JJ	.	16dd\JJ	.	.	.	.	.	.	.
16gg\LL	.	16cc\LL	.	4C/	-rum	4e-X\	-rum	4g\	-rum
16cc\	.	16gg\	.	.	.	.	.	.	.
16cc\	.	16gg\	.	.	.	.	.	.	.
16gg\JJ	.	16cc\JJ	.	.	.	.	.	.	.
16gg\LL	.	16b-\LL	.	2D/	A-	2d\	A-	4g\	A-
16b-\	.	16gg\	.	.	.	.	.	.	.
16b-\	.	16gg\	.	.	.	.	.	.	.
16gg\JJ	.	16b-\JJ	.	.	.	.	.	.	.
!!mixed beam:problem
!LO:TX:t=P:problem=mixed beam	!	!LO:TX:t=P:problem=mixed beam	!	!	!	!	!	!	!
16ff#X\LL	.	16a/LL	.	.	.	.	.	4f#X\	.
16a/	.	16ff#X\	.	.	.	.	.	.	.
16a/	.	16ff#\	.	.	.	.	.	.	.
16ff#\JJ	.	16a/JJ	.	.	.	.	.	.	.
*	*	*custos:a	*	*	*	*	*	*	*
!	!	!LO:LB:g=original	!	!	!	!	!	!	!
=54	=54	=54	=54	=54	=54	=54	=54	=54	=54
!!mixed beam:problem
!LO:TX:t=P:problem=mixed beam	!	!LO:TX:t=P:problem=mixed beam	!	!	!	!	!	!	!
16bb-\LL	.	16a/LL	.	1D	.	1d	.	2b-\	.
16a/	.	16bb-\	.	.	.	.	.	.	.
16a/	.	16bb-\	.	.	.	.	.	.	.
16bb-\JJ	.	16a/JJ	.	.	.	.	.	.	.
!!mixed beam:problem
!LO:TX:t=P:problem=mixed beam	!	!LO:TX:t=P:problem=mixed beam	!	!	!	!	!	!	!
16bb-\LL	.	16g/LL	.	.	.	.	.	.	.
16g/	.	16bb-\	.	.	.	.	.	.	.
16g/	.	16bb-\	.	.	.	.	.	.	.
16bb-\JJ	.	16g/JJ	.	.	.	.	.	.	.
!!mixed beam:problem
!LO:TX:t=P:problem=mixed beam	!	!LO:TX:t=P:problem=mixed beam	!	!	!	!	!	!	!
16aa\LL	.	16g/LL	.	.	.	.	.	2a\	.
16a/	.	16aa\	.	.	.	.	.	.	.
16a/	.	16aa\	.	.	.	.	.	.	.
16aa\JJ	.	16g/JJ	.	.	.	.	.	.	.
!!mixed beam:problem
!LO:TX:t=P:problem=mixed beam	!	!LO:TX:t=P:problem=mixed beam	!	!	!	!	!	!	!
16aa\LL	.	16f#X/LL	.	.	.	.	.	.	.
16f#X/	.	16aa\	.	.	.	.	.	.	.
16f#/	.	16aa\	.	.	.	.	.	.	.
16aa\JJ	.	16f#/JJ	.	.	.	.	.	.	.
=55	=55	=55	=55	=55	=55	=55	=55	=55	=55
1bbn	.	1g	.	1GG	-men.	1d	-men.	1bn	-men.
==;;	==	==;;	==	==;;	==	==;;	==	==;;	==
*-	*-	*-	*-	*-	*-	*-	*-	*-	*-
!!!system-decoration: [(g1)][(g2)]
!!!RDF**kern: > = above
!!!RDF**kern: < = below
!!!ENC: Andrzej Kubiczek
!!!END: 2020-08-13
!!!EED: Jędrzej Mróz
!!!EEV: 2021-12-28
!!!YEC: Copyright 2022 Narodowy Instytut Fryderyka Chopina (https://polishscores.org)
!!!YEM: License CC-BY-4.0 (https://creativecommons.org/licenses/by/4.0)
